X:1
T:He Came to Save Me
T:He Came to Save Me
T:William James Kirkpatrick
T:Frances Jane (Fanny) Crosby, 1885
T:Public Domain Courtesy of the Cyber Hymnal™
C:William James Kirkpatrick
Z:Public Domain
Z:Courtesy of the Cyber Hymnal™
%%score 1 ( 2 3 )
L:1/8
Q:1/4=93
M:4/4
K:G
V:1 treble 
V:2 bass 
V:3 bass 
V:1
 [DG] | [GB][GB][GB][GB] [Gd][Gd][GB][GB] | [DG]>[DG] [GB]2 [FA]3 [DG] | %3
w: 1.~When|Je- sus laid His crown a- side, He|came to save me; When|
w: 2.~In|my poor heart He deigns to dwell, He|came to save me; O|
w: 3.~With|gen- tle hand He leads me still, He|came to save me; And|
w: 4.~To|Him my faith with rap- ture clings, He|came to save me, To|
 [GB][GB][GB][GB] [Gd][Gd][GB][EG] | [GB]>[Ac] [FA]2 [DG]4 ||"^Refrain" [DG]2 [GB]2 [Gd]4 | %6
w: on the cross He bled and died, He|came to save me.||
w: praise His name, I know it well, He|came to save me.|I’m so glad,|
w: trust- ing Him I fear no ill, He|came to save me.||
w: Him my heart looks up and sings, He|came to save me.||
 [Ge]2 [Ge]2 [Gd]4 | [Gd][GB][DA][DG] [GB][DG][CE][DF] | [DG]2 [GB]2 [FA]4 | [DG]2 [GB]2 [Gd]4 | %10
w: ||||
w: I’m so glad,|I’m so glad that Je- sus came, and|grace is free,|I’m so glad,|
w: ||||
w: ||||
 [Ge]2 [Ge]2 [Gd]4 | [Gd][GB][DA][DG] [GB][DG][CE][DF] | [DB]>[Dc] [DA]2 [DG]4 |] %13
w: |||
w: I’m so glad,|I’m so glad that Je- sus came, He|came to save me.|
w: |||
w: |||
V:2
 [G,B,] | [G,D][G,D][G,D][G,D] [G,B,][G,B,][G,D][G,D] | [G,B,]>[G,B,] [G,D]2 [D,D]3 [G,B,] | %3
 [G,D][G,D][G,D][G,D] [G,B,][G,B,][G,D][G,B,] | [D,D]>[D,D] [D,C]2 [G,,G,B,]4 || %5
 [G,B,]2 [G,D]2 [G,B,]4 | [C,C]2 [C,C]2 [G,B,]4 | [G,B,][G,D][G,C][G,B,] [G,D][G,B,]G,G, | %8
 [G,B,]2 [G,D]2 [D,D]4 | [G,B,]2 [G,D]2 [G,B,]4 | [C,C]2 [C,C]2 [G,B,]4 | %11
 [G,B,][G,D][G,C][G,B,] [G,D][G,B,]G,G, | [D,G,]>[D,G,] [D,C]2 [G,,G,B,]4 |] %13
V:3
 x | x8 | x8 | x8 | x8 || x8 | x8 | x6 G,G, | x8 | x8 | x8 | x6 G,G, | x8 |] %13

